Dominus_Dark_Funeral/22/apps/software-properties.svg

<svg xmlns="http://www.w3.org/2000/svg" width="24" height="24" viewBox="0 0 6.35 6.35"><defs><linearGradient id="a"><stop offset="0"/><stop offset="1" stop-opacity="0"/></linearGradient><linearGradient id="b" x1="24.82" x2="25" y1="15.38" y2="37.28" gradientTransform="matrix(.79363 0 0 .9639 65.3 -7.76)" gradientUnits="userSpaceOnUse"><stop offset="0" stop-color="#eacfb0"/><stop offset=".24" stop-color="#b09b77"/><stop offset=".28" stop-color="#e3cfa5"/><stop offset="1" stop-color="#997b53"/></linearGradient><linearGradient id="c"><stop offset="0" stop-color="#cee14b"/><stop offset="1" stop-color="#9db029"/></linearGradient></defs><path d="M1.12.15a.43.43 0 0 0-.34.16l-.4.48a.58.58 0 0 0-.13.37V4.8a.58.58 0 0 0 .58.58h1.78l-.01-.01a2.02 2.02 0 0 1 1.87-2.82c.28 0 .55.06.79.16.08.04.14.1.21.15V1.16A.58.58 0 0 0 5.34.8l-.4-.48A.44.44 0 0 0 4.6.15zM1.1.44h3.48l.28.29h-4zm3.37 2.5a1.63 1.63 0 1 0 0 3.26 1.63 1.63 0 0 0 0-3.26zm.02.53l.12.04-.03.11c-.04.07-.01.05.03.04.05.03-.02.07-.05.06-.02-.05-.02-.05-.09-.01-.05.02-.13.02-.15.08-.02.04-.07.08-.08.02 0-.04-.06-.08-.01-.1.04-.03.02-.09-.02-.1-.03-.02-.1-.04-.05-.07l-.11.04.06.01c.02.03.04.07.08.08-.04.07-.1 0-.15-.03-.04-.03-.08.01-.1.05.02-.03.07-.03.08 0 0 .06-.06.03-.08 0l-.02.03c-.03.03-.07 0-.03-.04.03-.03.05-.06.04-.1.01-.05.03.07.05-.01.04 0 .07-.05.12-.05.04 0 .05-.04.1-.04.04 0 .02.03.01.04h.01c.1-.03.18-.05.27-.05zm.52.2h.01l.1.02c.04 0 .08.03.02.05-.07-.02-.02.02.01.05.04 0 .05-.1.09-.04.2.18.34.42.38.7-.04.08-.08-.07-.14-.04-.04-.01-.06-.08-.05 0 0 .03.05.05.06.08.04-.07.07 0 .06.05-.02.05-.06.07-.1.1-.05.04-.09.08.01.05 0 .06-.04.11-.06.16a.31.31 0 0 0-.08.14l.01.19c-.01.04-.07.06-.1.09-.06.02.06.05 0 .08-.05.02 0 .06-.04.09-.03.02-.05.07-.1.07-.04-.02-.06.04-.1.03a.46.46 0 0 0-.04-.2.26.26 0 0 1 0-.22c0-.03-.05-.06-.03-.1.02-.05-.03-.07-.04-.1.02-.04.03-.08-.02-.1-.04.02-.07-.04-.1-.01-.03.05-.05-.03-.08.02-.06.06-.12-.1-.16-.14 0-.03-.05-.07-.02-.1.05-.03-.01-.05.02-.09.03-.09.1-.16.16-.23.07-.01.14-.04.21 0 .03.02.06.06.09.07.02-.04.07-.04.1-.02.03 0 .08.02.11 0 .04-.03.06-.06 0-.08-.07.03-.08-.09-.13-.06 0 .05-.02.08-.06.02 0-.04-.02-.07-.06-.09-.03.01.07.05.02.09-.05.04-.03 0-.03-.03-.04 0-.05-.08-.09-.05-.04 0-.04.04-.08.05-.01.05-.04.07-.08.08-.03-.04-.07-.02-.06-.07-.01-.05.05-.07.08-.07.06 0 0-.06 0-.08.03 0 .06-.01.08-.05 0-.06.09-.02.06-.06.01-.05.02-.01.04 0 .04.03.08 0 .1-.02 0-.03.09-.08.07-.08-.07.04-.05-.04-.03-.08-.04 0-.06.03-.08.06.01.03.01.09-.02.1-.03-.01-.05-.08-.09-.03-.03.04-.03-.06-.03-.08.03-.02.1-.03.08-.07a.28.28 0 0 1 .13-.06zm-1.22.02c.04 0 .07.02.06.06-.04.06-.1.08-.15.12 0 .05.04.05.07.07.03.02.02.1.05.02 0-.04.07-.02.06-.08.02-.02.03-.1.07-.05.06.01 0 .08.06.04.05-.01.01.07.05.07.05.01 0 .06.06.08-.03.06-.04.03-.05-.02-.03.01-.07.03-.11.02-.03.02-.11.05-.04.04.04 0 .11-.01.06.03-.02.05-.1.02-.11.06-.01.05-.08.03-.09.08 0 .04-.04.07-.07.1-.05.01-.03.07-.04.11-.02-.03-.04-.07-.08-.07s-.05.04-.1.03c-.03.02-.07.05-.06.1-.01.03 0 .08.05.08.04-.02.1-.1.08 0-.05.1.08 0 .05.08-.01.06.07.1.1.06.03-.02.05-.08.09-.03.03.03.08.03.12.02.03 0 .03.06.05.08.04 0 .07.03.08.08.06.06.15.07.22.12 0 .03 0 .08-.03.1-.05.04-.02.1-.02.14-.02.03-.02.09-.07.09-.04 0-.07.04-.05.07l-.04.11c-.05 0-.06.05-.09.08 0 .1-.11 0-.17-.04l.03-.12a.17.17 0 0 1-.03-.11c.02-.05-.02-.08-.06-.11-.05-.04-.06-.1-.1-.15-.02-.03-.01-.07 0-.1-.01-.04.03-.07.03-.1.01-.03.05-.1 0-.09-.05.02-.08-.03-.1-.05-.03-.05-.1-.04-.14-.06-.05-.03-.1-.06-.11-.12.03-.26.14-.5.32-.69.03-.08.14-.07.15-.15zm.88.1c.04-.01.04.03.06.06.02.04.06.06 0 .1-.06.02-.05-.01-.04-.06.02-.04-.02-.06-.02-.1zm-.06.06c.02.03.05.05 0 .06-.02.02-.03-.05 0-.06zm.61.54c-.02.01 0 .04 0 .06.02.06.08.11.09.18-.02.06.1.1.05.04-.02-.03.03-.07-.03-.1-.04-.05-.05-.13-.1-.18z" fill="#e6e6e6" stroke-width=".29"/></svg>

<?xml version="1.0" encoding="UTF-8" standalone="no"?>
<svg
   xmlns:dc="http://purl.org/dc/elements/1.1/"
   xmlns:cc="http://creativecommons.org/ns#"
   xmlns:rdf="http://www.w3.org/1999/02/22-rdf-syntax-ns#"
   xmlns:svg="http://www.w3.org/2000/svg"
   xmlns="http://www.w3.org/2000/svg"
   xmlns:sodipodi="http://sodipodi.sourceforge.net/DTD/sodipodi-0.dtd"
   xmlns:inkscape="http://www.inkscape.org/namespaces/inkscape"
   width="24"
   height="24"
   viewBox="0 0 6.35 6.35"
   version="1.1"
   id="svg25"
   sodipodi:docname="software-properties.svg"
   inkscape:version="0.92.4 (5da689c313, 2019-01-14)">
  <metadata
     id="metadata29">
    <rdf:RDF>
      <cc:Work
         rdf:about="">
        <dc:format>image/svg+xml</dc:format>
        <dc:type
           rdf:resource="http://purl.org/dc/dcmitype/StillImage" />
        <dc:title></dc:title>
      </cc:Work>
    </rdf:RDF>
  </metadata>
  <sodipodi:namedview
     pagecolor="#ffffff"
     bordercolor="#666666"
     borderopacity="1"
     objecttolerance="10"
     gridtolerance="10"
     guidetolerance="10"
     inkscape:pageopacity="0"
     inkscape:pageshadow="2"
     inkscape:window-width="1138"
     inkscape:window-height="480"
     id="namedview27"
     showgrid="false"
     inkscape:zoom="9.8333333"
     inkscape:cx="1.0677966"
     inkscape:cy="12"
     inkscape:window-x="0"
     inkscape:window-y="25"
     inkscape:window-maximized="0"
     inkscape:current-layer="svg25" />
  <defs
     id="defs21">
    <linearGradient
       id="a">
      <stop
         offset="0"
         id="stop2" />
      <stop
         offset="1"
         stop-opacity="0"
         id="stop4" />
    </linearGradient>
    <linearGradient
       id="b"
       x1="24.82"
       x2="25"
       y1="15.38"
       y2="37.28"
       gradientTransform="matrix(.79363 0 0 .9639 65.3 -7.76)"
       gradientUnits="userSpaceOnUse">
      <stop
         offset="0"
         stop-color="#eacfb0"
         id="stop7" />
      <stop
         offset=".24"
         stop-color="#b09b77"
         id="stop9" />
      <stop
         offset=".28"
         stop-color="#e3cfa5"
         id="stop11" />
      <stop
         offset="1"
         stop-color="#997b53"
         id="stop13" />
    </linearGradient>
    <linearGradient
       id="c">
      <stop
         offset="0"
         stop-color="#cee14b"
         id="stop16" />
      <stop
         offset="1"
         stop-color="#9db029"
         id="stop18" />
    </linearGradient>
  </defs>
  <path
     d="M 1.12,0.15 A 0.43,0.43 0 0 0 0.78,0.31 L 0.38,0.79 A 0.58,0.58 0 0 0 0.25,1.16 V 4.8 A 0.58,0.58 0 0 0 0.83,5.38 H 2.61 L 2.6,5.37 A 2.02,2.02 0 0 1 4.47,2.55 c 0.28,0 0.55,0.06 0.79,0.16 0.08,0.04 0.14,0.1 0.21,0.15 V 1.16 A 0.58,0.58 0 0 0 5.34,0.8 L 4.94,0.32 A 0.44,0.44 0 0 0 4.6,0.15 Z M 1.1,0.44 h 3.48 l 0.28,0.29 h -4 z m 3.37,2.5 a 1.63,1.63 0 1 0 0,3.26 1.63,1.63 0 0 0 0,-3.26 z M 4.49,3.47 4.61,3.51 4.58,3.62 C 4.54,3.69 4.57,3.67 4.61,3.66 4.66,3.69 4.59,3.73 4.56,3.72 4.54,3.67 4.54,3.67 4.47,3.71 4.42,3.73 4.34,3.73 4.32,3.79 4.3,3.83 4.25,3.87 4.24,3.81 4.24,3.77 4.18,3.73 4.23,3.71 4.27,3.68 4.25,3.62 4.21,3.61 4.18,3.59 4.11,3.57 4.16,3.54 L 4.05,3.58 4.11,3.59 C 4.13,3.62 4.15,3.66 4.19,3.67 4.15,3.74 4.09,3.67 4.04,3.64 4,3.61 3.96,3.65 3.94,3.69 c 0.02,-0.03 0.07,-0.03 0.08,0 0,0.06 -0.06,0.03 -0.08,0 L 3.92,3.72 C 3.89,3.75 3.85,3.72 3.89,3.68 3.92,3.65 3.94,3.62 3.93,3.58 3.94,3.53 3.96,3.65 3.98,3.57 c 0.04,0 0.07,-0.05 0.12,-0.05 0.04,0 0.05,-0.04 0.1,-0.04 0.04,0 0.02,0.03 0.01,0.04 H 4.22 C 4.32,3.49 4.4,3.47 4.49,3.47 Z m 0.52,0.2 h 0.01 l 0.1,0.02 C 5.16,3.69 5.2,3.72 5.14,3.74 5.07,3.72 5.12,3.76 5.15,3.79 5.19,3.79 5.2,3.69 5.24,3.75 5.44,3.93 5.58,4.17 5.62,4.45 5.58,4.53 5.54,4.38 5.48,4.41 5.44,4.4 5.42,4.33 5.43,4.41 c 0,0.03 0.05,0.05 0.06,0.08 0.04,-0.07 0.07,0 0.06,0.05 C 5.53,4.59 5.49,4.61 5.45,4.64 5.4,4.68 5.36,4.72 5.46,4.69 5.46,4.75 5.42,4.8 5.4,4.85 A 0.31,0.31 0 0 0 5.32,4.99 L 5.33,5.18 C 5.32,5.22 5.26,5.24 5.23,5.27 5.17,5.29 5.29,5.32 5.23,5.35 5.18,5.37 5.23,5.41 5.19,5.44 5.16,5.46 5.14,5.51 5.09,5.51 5.05,5.49 5.03,5.55 4.99,5.54 a 0.46,0.46 0 0 0 -0.04,-0.2 0.26,0.26 0 0 1 0,-0.22 C 4.95,5.09 4.9,5.06 4.92,5.02 4.94,4.97 4.89,4.95 4.88,4.92 4.9,4.88 4.91,4.84 4.86,4.82 4.82,4.84 4.79,4.78 4.76,4.81 4.73,4.86 4.71,4.78 4.68,4.83 4.62,4.89 4.56,4.73 4.52,4.69 4.52,4.66 4.47,4.62 4.5,4.59 4.55,4.56 4.49,4.54 4.52,4.5 4.55,4.41 4.62,4.34 4.68,4.27 4.75,4.26 4.82,4.23 4.89,4.27 4.92,4.29 4.95,4.33 4.98,4.34 5,4.3 5.05,4.3 5.08,4.32 c 0.03,0 0.08,0.02 0.11,0 C 5.23,4.29 5.25,4.26 5.19,4.24 5.12,4.27 5.11,4.15 5.06,4.18 5.06,4.23 5.04,4.26 5,4.2 5,4.16 4.98,4.13 4.94,4.11 4.91,4.12 5.01,4.16 4.96,4.2 4.91,4.24 4.93,4.2 4.93,4.17 4.89,4.17 4.88,4.09 4.84,4.12 4.8,4.12 4.8,4.16 4.76,4.17 4.75,4.22 4.72,4.24 4.68,4.25 4.65,4.21 4.61,4.23 4.62,4.18 4.61,4.13 4.67,4.11 4.7,4.11 c 0.06,0 0,-0.06 0,-0.08 0.03,0 0.06,-0.01 0.08,-0.05 0,-0.06 0.09,-0.02 0.06,-0.06 0.01,-0.05 0.02,-0.01 0.04,0 0.04,0.03 0.08,0 0.1,-0.02 C 4.98,3.87 5.07,3.82 5.05,3.82 4.98,3.86 5,3.78 5.02,3.74 4.98,3.74 4.96,3.77 4.94,3.8 4.95,3.83 4.95,3.89 4.92,3.9 4.89,3.89 4.87,3.82 4.83,3.87 4.8,3.91 4.8,3.81 4.8,3.79 4.83,3.77 4.9,3.76 4.88,3.72 A 0.28,0.28 0 0 1 5.01,3.66 Z M 3.79,3.69 c 0.04,0 0.07,0.02 0.06,0.06 C 3.81,3.81 3.75,3.83 3.7,3.87 3.7,3.92 3.74,3.92 3.77,3.94 3.8,3.96 3.79,4.04 3.82,3.96 3.82,3.92 3.89,3.94 3.88,3.88 3.9,3.86 3.91,3.78 3.95,3.83 4.01,3.84 3.95,3.91 4.01,3.87 4.06,3.86 4.02,3.94 4.06,3.94 4.11,3.95 4.06,4 4.12,4.02 4.09,4.08 4.08,4.05 4.07,4 4.04,4.01 4,4.03 3.96,4.02 3.93,4.04 3.85,4.07 3.92,4.06 3.96,4.06 4.03,4.05 3.98,4.09 3.96,4.14 3.88,4.11 3.87,4.15 3.86,4.2 3.79,4.18 3.78,4.23 3.78,4.27 3.74,4.3 3.71,4.33 3.66,4.34 3.68,4.4 3.67,4.44 3.65,4.41 3.63,4.37 3.59,4.37 3.55,4.37 3.54,4.41 3.49,4.4 3.46,4.42 3.42,4.45 3.43,4.5 c -0.01,0.03 0,0.08 0.05,0.08 0.04,-0.02 0.1,-0.1 0.08,0 -0.05,0.1 0.08,0 0.05,0.08 C 3.6,4.72 3.68,4.76 3.71,4.72 3.74,4.7 3.76,4.64 3.8,4.69 c 0.03,0.03 0.08,0.03 0.12,0.02 0.03,0 0.03,0.06 0.05,0.08 0.04,0 0.07,0.03 0.08,0.08 0.06,0.06 0.15,0.07 0.22,0.12 0,0.03 0,0.08 -0.03,0.1 C 4.19,5.13 4.22,5.19 4.22,5.23 4.2,5.26 4.2,5.32 4.15,5.32 4.11,5.32 4.08,5.36 4.1,5.39 L 4.06,5.5 C 4.01,5.5 4,5.55 3.97,5.58 c 0,0.1 -0.11,0 -0.17,-0.04 L 3.83,5.42 A 0.17,0.17 0 0 1 3.8,5.31 C 3.82,5.26 3.78,5.23 3.74,5.2 3.69,5.16 3.68,5.1 3.64,5.05 3.62,5.02 3.63,4.98 3.64,4.95 3.63,4.91 3.67,4.88 3.67,4.85 3.68,4.82 3.72,4.75 3.67,4.76 3.62,4.78 3.59,4.73 3.57,4.71 3.54,4.66 3.47,4.67 3.43,4.65 3.38,4.62 3.33,4.59 3.32,4.53 3.35,4.27 3.46,4.03 3.64,3.84 3.67,3.76 3.78,3.77 3.79,3.69 Z m 0.88,0.1 c 0.04,-0.01 0.04,0.03 0.06,0.06 0.02,0.04 0.06,0.06 0,0.1 C 4.67,3.97 4.68,3.94 4.69,3.89 4.71,3.85 4.67,3.83 4.67,3.79 Z M 4.61,3.85 c 0.02,0.03 0.05,0.05 0,0.06 -0.02,0.02 -0.03,-0.05 0,-0.06 z m 0.61,0.54 c -0.02,0.01 0,0.04 0,0.06 C 5.24,4.51 5.3,4.56 5.31,4.63 5.29,4.69 5.41,4.73 5.36,4.67 5.34,4.64 5.39,4.6 5.33,4.57 5.29,4.52 5.28,4.44 5.23,4.39 Z"
     id="path23"
     inkscape:connector-curvature="0"
     style="fill:#e6e6e6;stroke-width:0.28999999" />
</svg>
